X: 1
T: Scottisch du Regret   [Am]
R: shottish
S: handout at NEFFA 2016 from Mark Vidor p.7, from a transcription by Y.F. Perroches
Z: 2016 John Chambers <jc:trillian.mit.edu>
M: C
L: 1/8
K: Am
% - - - - - - - - - - - - - - - - - - - - - - - - -
V: 1 staves=2
"A"|:\
"Am"A2Ac e2dc | "E7"B2Bc B4 | "E7"e2ef edcB |\
[1,3 "Am"cdBc A4 :|[2,4 "Am"A8 :|
"B"|:\
"F"F2FA c2BA | "Am"c2BA E4 | "E7"e2ef edcB |\
[1,3 "Am"cdBc A4 :|[2,4 "Am"A8 :|
% - - - - - - - - - - - - - - - - - - - - - - - - -
V: 2
"A"|:\
E2E A3E2 | ^G2G E3G2 | B,3 ^G3 E2 |\
[1,3 A3 E3 C2 :|[2,4 A3 e3 c2 :|
"B"|:\
d2d a3d2 | e2e a3a2 | ^g3 b3 g2 |\
[1,3 a3 e3 e2 :|[2,4 a8 :|
% - - - - - - - - - - - - - - - - - - - - - - - - -

%%sep 1 1 500

